icons/gh-copilot-24.svg

<svg width="24" height="24" viewBox="0 0 24 24" fill="none" xmlns="http://www.w3.org/2000/svg">
<path d="M9.5 13.75C10.0523 13.75 10.5 14.1977 10.5 14.75V16.75C10.5 17.3023 10.0523 17.75 9.5 17.75C8.94771 17.75 8.5 17.3023 8.5 16.75V14.75C8.5 14.1977 8.94771 13.75 9.5 13.75Z" fill="#24292F"/>
<path d="M15.5 14.75C15.5 14.1977 15.0523 13.75 14.5 13.75C13.9477 13.75 13.5 14.1977 13.5 14.75V16.75C13.5 17.3023 13.9477 17.75 14.5 17.75C15.0523 17.75 15.5 17.3023 15.5 16.75V14.75Z" fill="#24292F"/>
<path fill-rule="evenodd" clip-rule="evenodd" d="M24 13.8V16.7395C23.9993 17.0868 23.8272 17.4253 23.547 17.6305C20.2393 20.0521 16.1578 22 12 22C7.4001 22 2.79468 19.3494 0.453 17.6305C0.17281 17.4253 0.000677778 17.0868 0 16.7395V13.8C0 13.446 0.1125 13.104 0.321 12.819L1.0515 11.8305C1.44273 11.3001 2.02456 11.16 2.6445 11.16C2.8785 8.49 3.432 6.585 4.755 5.19C7.275 2.52 10.62 2.25 12 2.25C13.38 2.25 16.725 2.52 19.245 5.19C20.5665 6.585 21.1215 8.49 21.3555 11.16C21.9767 11.16 22.556 11.2977 22.947 11.8305L23.6775 12.8205C23.8875 13.1055 24 13.446 24 13.8ZM19.422 12.5775C19.39 11.9649 18.8925 11.7245 18.375 11.5545C17.8293 11.8968 17.163 12.0315 16.5255 12.0315C15.8475 12.0315 14.583 11.8695 13.5315 10.8195C13.266 10.5555 13.0845 10.1415 12.9615 9.6825C12.6425 9.65005 12.3221 9.63305 12.0015 9.6315C11.7165 9.6315 11.388 9.648 11.0385 9.6825C10.9155 10.1415 10.734 10.5555 10.4685 10.8195C9.4185 11.8695 8.1525 12.0315 7.4745 12.0315C6.8368 12.0315 6.1688 11.8983 5.6235 11.5545C5.10765 11.724 4.6123 11.9684 4.5795 12.5775C4.52458 13.7288 4.5198 14.879 4.51503 16.0297C4.51263 16.6073 4.51025 16.8025 4.5015 17.3805C4.50383 17.716 4.70605 18.0277 5.0115 18.1665C7.494 19.2975 9.8415 19.8675 12.0015 19.8675C14.1585 19.8675 16.506 19.2975 18.987 18.1665C19.2924 18.0277 19.4947 17.716 19.497 17.3805C19.5268 15.6538 19.5028 14.3025 19.4205 12.5775H19.422ZM5.04 10.17C5.445 10.575 6.21 10.845 7.035 10.845C7.665 10.845 8.865 10.71 9.855 9.705C10.29 9.285 10.56 8.235 10.53 7.17C10.5 6.315 10.26 5.61 9.9 5.31C9.51 4.965 8.625 4.815 7.635 4.905C6.585 5.01 5.7 5.355 5.25 5.835C4.275 6.9 4.485 9.6 5.04 10.17ZM11.16 6.545C11.2011 6.74035 11.207 7.07665 11.2115 7.33169C11.2135 7.44873 11.2153 7.54866 11.22 7.61C11.22 7.745 11.22 7.88 11.205 8.03C11.505 8 11.76 8 12 8C12.24 8 12.495 8 12.795 8.03C12.78 7.88 12.78 7.74503 12.78 7.61002C12.7847 7.54855 12.7865 7.45296 12.7885 7.34048C12.793 7.0962 12.7989 6.77223 12.84 6.545C12.525 6.515 12.24 6.5 12 6.5C11.76 6.5 11.475 6.515 11.16 6.545ZM13.47 7.17C13.44 8.235 13.71 9.285 14.145 9.705C15.135 10.71 16.335 10.845 16.965 10.845C17.79 10.845 18.555 10.575 18.96 10.17C19.515 9.6 19.725 6.9 18.75 5.835C18.3 5.355 17.415 5.01 16.365 4.905C15.375 4.815 14.49 4.965 14.1 5.31C13.74 5.61 13.5 6.315 13.47 7.17Z" fill="#24292F"/>
</svg>

<svg xmlns="http://www.w3.org/2000/svg" width="24" height="24" viewBox="0 0 24 24"><path d="M9.5 13.75a1 1 0 011 1v2a1 1 0 11-2 0v-2a1 1 0 011-1zm6 1a1 1 0 10-2 0v2a1 1 0 102 0v-2z"/><path fill-rule="evenodd" d="M24 13.8v2.94c0 .347-.173.685-.453.89C20.239 20.053 16.157 22 12 22 7.4 22 2.795 19.35.453 17.63A1.12 1.12 0 010 16.74V13.8c0-.354.113-.696.321-.981l.73-.989c.392-.53.974-.67 1.593-.67.234-2.67.788-4.575 2.111-5.97C7.275 2.52 10.62 2.25 12 2.25s4.725.27 7.245 2.94c1.322 1.395 1.877 3.3 2.11 5.97.622 0 1.201.138 1.592.67l.73.99c.21.285.323.626.323.98zm-4.578-1.223c-.032-.612-.53-.852-1.047-1.022-.546.342-1.212.476-1.85.476-.677 0-1.942-.162-2.993-1.212-.266-.264-.447-.678-.57-1.137a9.962 9.962 0 00-.96-.05c-.286 0-.614.016-.963.05-.123.46-.305.873-.57 1.137-1.05 1.05-2.316 1.212-2.994 1.212-.638 0-1.306-.133-1.851-.476-.516.169-1.012.413-1.044 1.023a79.282 79.282 0 00-.065 3.452c-.002.577-.005.772-.013 1.35a.878.878 0 00.51.787c2.482 1.13 4.83 1.7 6.99 1.7 2.156 0 4.504-.57 6.985-1.7a.878.878 0 00.51-.787c.03-1.726.006-3.077-.076-4.802h.001zM5.04 10.17c.405.405 1.17.675 1.995.675.63 0 1.83-.135 2.82-1.14.435-.42.705-1.47.675-2.535-.03-.855-.27-1.56-.63-1.86-.39-.345-1.275-.495-2.265-.405-1.05.105-1.935.45-2.385.93C4.275 6.9 4.485 9.6 5.04 10.17zm6.12-3.625c.041.195.047.532.051.787.002.117.004.217.009.278 0 .135 0 .27-.015.42.3-.03.555-.03.795-.03s.495 0 .795.03c-.015-.15-.015-.285-.015-.42.005-.061.007-.157.009-.27.004-.244.01-.568.051-.795-.315-.03-.6-.045-.84-.045s-.525.015-.84.045zm2.31.625c-.03 1.065.24 2.115.675 2.535.99 1.005 2.19 1.14 2.82 1.14.825 0 1.59-.27 1.995-.675.555-.57.765-3.27-.21-4.335-.45-.48-1.335-.825-2.385-.93-.99-.09-1.875.06-2.265.405-.36.3-.6 1.005-.63 1.86z"/></svg>
